X:405
T:Carolan's Fancy
R:jig
Z:Transcribed by Dave Marshall
M:6/8
K:G
|: EDE G2A | ~B3 dBd | edB GAB | ABA AGD |
EDE G2A | ~B3 dBd | edB GAB | AGF G3 :|
|:d3 def | gfe fdB | ~A3 ABd | egf e3 |
gfe fed | edB egg | edB AGA | BGF G3 :|
